Simply-Purple-Circles/scalable/apps/deepin-draw.svg

<svg xmlns="http://www.w3.org/2000/svg" width="48" height="48" viewBox="0 0 12.7 12.7"><path fill="#963996" d="M6.34.08A6.27 6.27 0 0 0 .08 6.34a6.27 6.27 0 0 0 6.26 6.27 6.27 6.27 0 0 0 6.27-6.27A6.27 6.27 0 0 0 6.34.08zM6.33 1A5.39 5.39 0 0 1 11.7 6.4a5.39 5.39 0 0 1-5.38 5.39 5.39 5.39 0 0 1-5.4-5.4 5.39 5.39 0 0 1 5.4-5.38zM6.3 2.25c-1.12.01-2.62.42-2.6 1.73.03 1.37 1.55.88 1.67 1.44l.07-.06c.1-.12.2-.2.31-.32l.52-.54c.58-.63.6-.67 2-1.72a3.78 3.78 0 0 0-1.74-.53H6.3zm3.25 0a24.16 24.16 0 0 0-3.5 3.11l-.17.16-.1.13a24.08 24.08 0 0 0-1.93 2.48.56.56 0 0 0-.6.05c-.4.26-.3 1.21-1.13 1.21.08.32.92.31 1.49.17.53-.13.7-.6.6-1l-.09-.16a25.72 25.72 0 0 0 2.31-2.14l.45-.49a28.6 28.6 0 0 0 2.67-3.52zm-4.27.8a.8.8 0 0 1 .01 0c.44 0 .8.36.8.8a.8.8 0 1 1-.8-.8zm3.86.36a14.8 14.8 0 0 1-1.78 2.43c-.34.34-.62.69-.86.94A45.52 45.52 0 0 1 4.83 8.4c.03.78.43 1.46 1.72 1.7 2.06.4 4.24-.96 4.02-3.73a4.99 4.99 0 0 0-1.43-2.97zm.18 2.01a.53.53 0 0 1 0 1.06.53.53 0 0 1 0-1.06zm-.35 1.59a.53.53 0 0 1 .02 0 .53.53 0 0 1 0 1.06A.53.53 0 0 1 8.97 7zM6.35 8.07a.53.53 0 0 1 0 1.06.53.53 0 0 1 0-1.06zm1.58 0a.53.53 0 0 1 0 1.06.53.53 0 0 1 0-1.06z"/></svg>

<?xml version="1.0" encoding="UTF-8" standalone="no"?>
<svg
   xmlns:dc="http://purl.org/dc/elements/1.1/"
   xmlns:cc="http://creativecommons.org/ns#"
   xmlns:rdf="http://www.w3.org/1999/02/22-rdf-syntax-ns#"
   xmlns:svg="http://www.w3.org/2000/svg"
   xmlns="http://www.w3.org/2000/svg"
   xmlns:sodipodi="http://sodipodi.sourceforge.net/DTD/sodipodi-0.dtd"
   xmlns:inkscape="http://www.inkscape.org/namespaces/inkscape"
   width="48"
   height="48"
   viewBox="0 0 12.7 12.7"
   version="1.1"
   id="svg4"
   sodipodi:docname="deepin-draw.svg"
   inkscape:version="0.92.4 (5da689c313, 2019-01-14)">
  <metadata
     id="metadata10">
    <rdf:RDF>
      <cc:Work
         rdf:about="">
        <dc:format>image/svg+xml</dc:format>
        <dc:type
           rdf:resource="http://purl.org/dc/dcmitype/StillImage" />
        <dc:title></dc:title>
      </cc:Work>
    </rdf:RDF>
  </metadata>
  <defs
     id="defs8" />
  <sodipodi:namedview
     pagecolor="#ffffff"
     bordercolor="#666666"
     borderopacity="1"
     objecttolerance="10"
     gridtolerance="10"
     guidetolerance="10"
     inkscape:pageopacity="0"
     inkscape:pageshadow="2"
     inkscape:window-width="1087"
     inkscape:window-height="480"
     id="namedview6"
     showgrid="false"
     inkscape:zoom="4.9166667"
     inkscape:cx="2.1355932"
     inkscape:cy="24"
     inkscape:window-x="0"
     inkscape:window-y="25"
     inkscape:window-maximized="0"
     inkscape:current-layer="svg4" />
  <path
     d="M 6.34,0.08 A 6.27,6.27 0 0 0 0.08,6.34 6.27,6.27 0 0 0 6.34,12.61 6.27,6.27 0 0 0 12.61,6.34 6.27,6.27 0 0 0 6.34,0.08 Z M 6.33,1 A 5.39,5.39 0 0 1 11.7,6.4 5.39,5.39 0 0 1 6.32,11.79 5.39,5.39 0 0 1 0.92,6.39 5.39,5.39 0 0 1 6.32,1.01 Z M 6.3,2.25 C 5.18,2.26 3.68,2.67 3.7,3.98 3.73,5.35 5.25,4.86 5.37,5.42 L 5.44,5.36 C 5.54,5.24 5.64,5.16 5.75,5.04 L 6.27,4.5 c 0.58,-0.63 0.6,-0.67 2,-1.72 A 3.78,3.78 0 0 0 6.53,2.25 Z m 3.25,0 A 24.16,24.16 0 0 0 6.05,5.36 L 5.88,5.52 5.78,5.65 A 24.08,24.08 0 0 0 3.85,8.13 0.56,0.56 0 0 0 3.25,8.18 C 2.85,8.44 2.95,9.39 2.12,9.39 2.2,9.71 3.04,9.7 3.61,9.56 c 0.53,-0.13 0.7,-0.6 0.6,-1 L 4.12,8.4 A 25.72,25.72 0 0 0 6.43,6.26 L 6.88,5.77 A 28.6,28.6 0 0 0 9.55,2.25 Z m -4.27,0.8 a 0.8,0.8 0 0 1 0.01,0 c 0.44,0 0.8,0.36 0.8,0.8 A 0.8,0.8 0 1 1 5.29,3.05 Z M 9.14,3.41 A 14.8,14.8 0 0 1 7.36,5.84 C 7.02,6.18 6.74,6.53 6.5,6.78 A 45.52,45.52 0 0 1 4.83,8.4 c 0.03,0.78 0.43,1.46 1.72,1.7 2.06,0.4 4.24,-0.96 4.02,-3.73 A 4.99,4.99 0 0 0 9.14,3.4 Z m 0.18,2.01 a 0.53,0.53 0 0 1 0,1.06 0.53,0.53 0 0 1 0,-1.06 z M 8.97,7.01 a 0.53,0.53 0 0 1 0.02,0 0.53,0.53 0 0 1 0,1.06 A 0.53509345,0.53509345 0 0 1 8.97,7 Z M 6.35,8.07 a 0.53,0.53 0 0 1 0,1.06 0.53,0.53 0 0 1 0,-1.06 z m 1.58,0 a 0.53,0.53 0 0 1 0,1.06 0.53,0.53 0 0 1 0,-1.06 z"
     id="path2"
     inkscape:connector-curvature="0"
     style="fill:#963996" />
</svg>
